build/finance/BrokerSolid.svg

<svg xmlns="http://www.w3.org/2000/svg" fill="none" viewBox="0 0 24 24" focusable="false"><path d="M0 0H24V24H0z"/><path fill="#74767B" fill-rule="evenodd" d="M7.00001 20C5.34315 20 4.00001 18.6569 4 17L4 7.00001C4 5.34315 5.34314 4.00001 7 4L17 4C18.6569 4 20 5.34314 20 7L20 17C20 18.6569 18.6569 20 17 20L7.00001 20ZM6.97249 6.34593C6.97249 5.98694 6.68148 5.69593 6.32249 5.69593C5.96351 5.69593 5.67249 5.98694 5.67249 6.34593L5.67249 16.1499C5.67248 17.2268 6.54553 18.0999 7.62249 18.0999L17.4935 18.0999C17.8525 18.0999 18.1435 17.8089 18.1435 17.4499C18.1435 17.0909 17.8525 16.7999 17.4935 16.7999L7.62249 16.7999C7.2635 16.7999 6.97248 16.5089 6.97249 16.1499L6.97249 6.34593ZM17.8113 8.6346C17.6719 8.51526 17.4885 8.46042 17.3064 8.48361L15.0567 8.77026C14.7006 8.81564 14.4487 9.1411 14.4941 9.49721C14.5395 9.85332 14.865 10.1052 15.2211 10.0598L15.8325 9.98193L13.7398 12.1729L11.8436 10.1876C11.721 10.0592 11.5511 9.98654 11.3735 9.98654C11.196 9.98654 11.0261 10.0592 10.9035 10.1876L8.53722 12.6651C8.28927 12.9247 8.29872 13.3361 8.55832 13.5841C8.81792 13.832 9.22937 13.8226 9.47731 13.563L11.3735 11.5776L13.2698 13.563C13.3924 13.6914 13.5623 13.764 13.7398 13.764C13.9174 13.764 14.0872 13.6914 14.2099 13.563L16.7872 10.8645L16.8012 11.3594C16.8113 11.7182 17.1104 12.0009 17.4692 11.9908C17.8281 11.9807 18.1108 11.6816 18.1007 11.3228L18.0383 9.1101C18.0332 8.92665 17.9507 8.75394 17.8113 8.6346Z"/></svg>

<svg xmlns="http://www.w3.org/2000/svg" fill="none" viewBox="0 0 24 24" focusable="false"><path fill="#74767B" fill-rule="evenodd" d="M7 20c-1.66 0-3-1.35-3-3V7c0-1.66 1.34-3 3-3h10c1.65 0 3 1.34 3 3v10c0 1.65-1.35 3-3 3zM6.97 6.34c0-.36-.29-.65-.65-.65s-.65.29-.65.65v9.8c0 1.08.87 1.95 1.95 1.95h9.87c.36 0 .65-.29.65-.65 0-.35-.29-.65-.65-.65H7.62c-.36 0-.65-.29-.65-.65zm10.84 2.29a.67.67 0 0 0-.51-.15l-2.25.29c-.35.04-.61.37-.56.72.04.36.37.61.73.56l.61-.07-2.1 2.19-1.89-1.99a.63.63 0 0 0-.47-.2c-.18 0-.35.07-.47.2l-2.37 2.48c-.25.26-.24.67.02.92s.67.24.92-.02l1.9-1.99 1.89 1.99c.13.13.3.2.47.2.18 0 .35-.07.47-.2l2.58-2.7.02.49c.01.36.31.65.66.64.36-.01.65-.31.64-.67l-.07-2.21c0-.19-.08-.36-.22-.48"/></svg>
